X:1
T:The Cherry-Tree Carol
M:3/4
L:1/8
K:G
 D2| G3 FE D| G2 A2B-c| d2 B2B-G| A4d-c| B2 G2 AB| c2 E2 G2| F2 D2 EF|\
 G4||
